report_00007_2020-12-11T15:55:29.892Z/largest-contentful-paint/comparison/sorted/10_vs_11.svg

<svg width="640" height="490" xmlns="http://www.w3.org/2000/svg" xmlns:xlink="http://www.w3.org/1999/xlink"><path fill="#fff" d="M0 0h640v490H0z"/><defs><path id="d" stroke-width=".222" stroke="currentColor" d="M-1-1h2v2h-2z"/><path id="b" stroke-width=".222" stroke="currentColor" d="M0-1.33l-1.33 2h2.66z"/><path id="f" stroke-width=".222" stroke="currentColor" d="M0 1.33L1.265.411.782-1.067l-1.564-.009-.483 1.487z"/><use xlink:href="#b" id="c" stroke="currentColor" transform="rotate(180)"/><use xlink:href="#d" id="e" stroke="currentColor" transform="rotate(45)"/><circle id="a" stroke-width=".222" stroke="currentColor" cx="0" cy="0" r="1"/></defs><g fill="none" color="#000" stroke="currentColor"><path stroke="#000" d="M62.2 396.9h9m543.8 0h-9"/><text transform="translate(53.9 400.8)" stroke="none" fill="#000" font-family="Arial" font-size="12" text-anchor="end"><tspan>2800</tspan></text></g><g fill="none" color="#000" stroke="currentColor"><path stroke="#000" d="M62.2 350.5h9m543.8 0h-9"/><text transform="translate(53.9 354.4)" stroke="none" fill="#000" font-family="Arial" font-size="12" text-anchor="end"><tspan>2820</tspan></text></g><g fill="none" color="#000" stroke="currentColor"><path stroke="#000" d="M62.2 304.1h9m543.8 0h-9"/><text transform="translate(53.9 308)" stroke="none" fill="#000" font-family="Arial" font-size="12" text-anchor="end"><tspan>2840</tspan></text></g><g fill="none" color="#000" stroke="currentColor"><path stroke="#000" d="M62.2 257.7h9m543.8 0h-9"/><text transform="translate(53.9 261.6)" stroke="none" fill="#000" font-family="Arial" font-size="12" text-anchor="end"><tspan>2860</tspan></text></g><g fill="none" color="#000" stroke="currentColor"><path stroke="#000" d="M62.2 211.3h9m543.8 0h-9"/><text transform="translate(53.9 215.2)" stroke="none" fill="#000" font-family="Arial" font-size="12" text-anchor="end"><tspan>2880</tspan></text></g><g fill="none" color="#000" stroke="currentColor"><path stroke="#000" d="M62.2 164.9h9m543.8 0h-9"/><text transform="translate(53.9 168.8)" stroke="none" fill="#000" font-family="Arial" font-size="12" text-anchor="end"><tspan>2900</tspan></text></g><g fill="none" color="#000" stroke="currentColor"><path stroke="#000" d="M62.2 118.6h9m543.8 0h-9"/><text transform="translate(53.9 122.5)" stroke="none" fill="#000" font-family="Arial" font-size="12" text-anchor="end"><tspan>2920</tspan></text></g><g fill="none" color="#000" stroke="currentColor"><path stroke="#000" d="M62.2 72.2h9m543.8 0h-9"/><text transform="translate(53.9 76.1)" stroke="none" fill="#000" font-family="Arial" font-size="12" text-anchor="end"><tspan>2940</tspan></text></g><g fill="none" color="#000" stroke="currentColor"><path stroke="#000" d="M62.2 25.8h9m543.8 0h-9"/><text transform="translate(53.9 29.7)" stroke="none" fill="#000" font-family="Arial" font-size="12" text-anchor="end"><tspan>2960</tspan></text></g><g fill="none" color="#000" stroke="currentColor"><path stroke="#000" d="M62.2 400v-9m0-372.9v9"/><text transform="translate(62.2 421.9)" stroke="none" fill="#000" font-family="Arial" font-size="12" text-anchor="middle"><tspan>0</tspan></text></g><g fill="none" color="#000" stroke="currentColor"><path stroke="#000" d="M118 400v-9m0-372.9v9"/><text transform="translate(118 421.9)" stroke="none" fill="#000" font-family="Arial" font-size="12" text-anchor="middle"><tspan>10</tspan></text></g><g fill="none" color="#000" stroke="currentColor"><path stroke="#000" d="M173.9 400v-9m0-372.9v9"/><text transform="translate(173.9 421.9)" stroke="none" fill="#000" font-family="Arial" font-size="12" text-anchor="middle"><tspan>20</tspan></text></g><g fill="none" color="#000" stroke="currentColor"><path stroke="#000" d="M229.7 400v-9m0-372.9v9"/><text transform="translate(229.7 421.9)" stroke="none" fill="#000" font-family="Arial" font-size="12" text-anchor="middle"><tspan>30</tspan></text></g><g fill="none" color="#000" stroke="currentColor"><path stroke="#000" d="M285.6 400v-9m0-372.9v9"/><text transform="translate(285.6 421.9)" stroke="none" fill="#000" font-family="Arial" font-size="12" text-anchor="middle"><tspan>40</tspan></text></g><g fill="none" color="#000" stroke="currentColor"><path stroke="#000" d="M341.4 400v-9m0-372.9v9"/><text transform="translate(341.4 421.9)" stroke="none" fill="#000" font-family="Arial" font-size="12" text-anchor="middle"><tspan>50</tspan></text></g><g fill="none" color="#000" stroke="currentColor"><path stroke="#000" d="M397.2 400v-9m0-372.9v9"/><text transform="translate(397.2 421.9)" stroke="none" fill="#000" font-family="Arial" font-size="12" text-anchor="middle"><tspan>60</tspan></text></g><g fill="none" color="#000" stroke="currentColor"><path stroke="#000" d="M453.1 400v-9m0-372.9v9"/><text transform="translate(453.1 421.9)" stroke="none" fill="#000" font-family="Arial" font-size="12" text-anchor="middle"><tspan>70</tspan></text></g><g fill="none" color="#000" stroke="currentColor"><path stroke="#000" d="M508.9 400v-9m0-372.9v9"/><text transform="translate(508.9 421.9)" stroke="none" fill="#000" font-family="Arial" font-size="12" text-anchor="middle"><tspan>80</tspan></text></g><g fill="none" color="#000" stroke="currentColor"><path stroke="#000" d="M564.7 400v-9m0-372.9v9"/><text transform="translate(564.7 421.9)" stroke="none" fill="#000" font-family="Arial" font-size="12" text-anchor="middle"><tspan>90</tspan></text></g><path stroke="#000" d="M62.2 18.1V400H615V18.1H62.2z" fill="none" color="#000"/><text transform="translate(487.6 439.9)" stroke="none" fill="#000" font-family="Arial" font-size="12" text-anchor="end" color="#000"><tspan>pages+cached+noexternal+nofonts+nosvg+noimg</tspan></text><path stroke="#9400D3" d="M495.9 436h42.2M62.2 392.7l5.6-4.9 5.6-.3 5.6-2.8 5.5-1.9h5.6l5.6-.4 5.6-1.7 5.6-3.4 5.6-.4h5.5l5.6-.9 5.6-.7 5.6-3.6 5.6-141 5.6-.1 5.5-1.2 5.6-3.7 5.6-1.5 5.6-2.1 5.6-.1 5.6-.3 5.5-.1 5.6-.6 5.6-1.4 5.6-.3 5.6-.6h5.6l5.5-.4 5.6-.7 5.6-.4 5.6-.4 5.6-.4 5.6-.1h5.6l5.5-.4 5.6-.3 5.6-.4h5.6l5.6-.3 5.6-.4 5.5-.6 5.6-.3 5.6-.1 5.6-.2 5.6-.1h5.6l5.5-.1 5.6-.6h5.6l5.6-.1 5.6-.2 5.6-.2 5.5-.4 5.6-.1 5.6-.8 5.6-.3 5.6-.9h5.6l5.5-.8h5.6l5.6-.1 5.6-.1 5.6-.1 5.6-.2 5.5-.5 5.6-.1h5.6l5.6-.4 5.6-.7 5.6-1 5.6-1.4 5.5-.6 5.6-.5 5.6-.1h5.6l5.6-.3 5.6-.9 5.5-.1 5.6-.2 5.6-.2 5.6-.2 5.6-1.4 5.6-.2 5.5-1.5 5.6-3.5 5.6-2.6L548 55.4l5.6-11.3 5.6-3.6 5.5-8.7h5.6l5.6-1.1 5.6-.5 5.6-1.8 5.6-.2h5.5l5.6-.2 5.6-1.8 5.6-.8" fill="none" color="#000"/><text transform="translate(487.6 457.9)" stroke="none" fill="#000" font-family="Arial" font-size="12" text-anchor="end" color="#000"><tspan>score p10=2500</tspan></text><path stroke="#009E73" d="M495.9 454h42.2" fill="none" color="#000"/><text transform="translate(487.6 475.9)" stroke="none" fill="#000" font-family="Arial" font-size="12" text-anchor="end" color="#000"><tspan>score median=4000</tspan></text><path stroke="#56B4E9" d="M495.9 472h42.2" fill="none" color="#000"/><g fill="none" color="#000" stroke="currentColor"><path stroke="#000" d="M62.2 18.1V400H615V18.1H62.2z"/></g></svg>

<?xml version="1.0" encoding="utf-8"  standalone="no"?>
<svg 
 width="640" height="490"
 viewBox="0 0 640 490"
 xmlns="http://www.w3.org/2000/svg"
 xmlns:xlink="http://www.w3.org/1999/xlink"
>

<title>Gnuplot</title>
<desc>Produced by GNUPLOT 5.4 patchlevel 0 </desc>

<g id="gnuplot_canvas">

<rect x="0" y="0" width="640" height="490" fill="#ffffff"/>
<defs>

	<circle id='gpDot' r='0.5' stroke-width='0.5' stroke='currentColor'/>
	<path id='gpPt0' stroke-width='0.222' stroke='currentColor' d='M-1,0 h2 M0,-1 v2'/>
	<path id='gpPt1' stroke-width='0.222' stroke='currentColor' d='M-1,-1 L1,1 M1,-1 L-1,1'/>
	<path id='gpPt2' stroke-width='0.222' stroke='currentColor' d='M-1,0 L1,0 M0,-1 L0,1 M-1,-1 L1,1 M-1,1 L1,-1'/>
	<rect id='gpPt3' stroke-width='0.222' stroke='currentColor' x='-1' y='-1' width='2' height='2'/>
	<rect id='gpPt4' stroke-width='0.222' stroke='currentColor' fill='currentColor' x='-1' y='-1' width='2' height='2'/>
	<circle id='gpPt5' stroke-width='0.222' stroke='currentColor' cx='0' cy='0' r='1'/>
	<use xlink:href='#gpPt5' id='gpPt6' fill='currentColor' stroke='none'/>
	<path id='gpPt7' stroke-width='0.222' stroke='currentColor' d='M0,-1.33 L-1.33,0.67 L1.33,0.67 z'/>
	<use xlink:href='#gpPt7' id='gpPt8' fill='currentColor' stroke='none'/>
	<use xlink:href='#gpPt7' id='gpPt9' stroke='currentColor' transform='rotate(180)'/>
	<use xlink:href='#gpPt9' id='gpPt10' fill='currentColor' stroke='none'/>
	<use xlink:href='#gpPt3' id='gpPt11' stroke='currentColor' transform='rotate(45)'/>
	<use xlink:href='#gpPt11' id='gpPt12' fill='currentColor' stroke='none'/>
	<path id='gpPt13' stroke-width='0.222' stroke='currentColor' d='M0,1.330 L1.265,0.411 L0.782,-1.067 L-0.782,-1.076 L-1.265,0.411 z'/>
	<use xlink:href='#gpPt13' id='gpPt14' fill='currentColor' stroke='none'/>
	<filter id='textbox' filterUnits='objectBoundingBox' x='0' y='0' height='1' width='1'>
	  <feFlood flood-color='#FFFFFF' flood-opacity='1' result='bgnd'/>
	  <feComposite in='SourceGraphic' in2='bgnd' operator='atop'/>
	</filter>
	<filter id='greybox' filterUnits='objectBoundingBox' x='0' y='0' height='1' width='1'>
	  <feFlood flood-color='lightgrey' flood-opacity='1' result='grey'/>
	  <feComposite in='SourceGraphic' in2='grey' operator='atop'/>
	</filter>
</defs>
<g fill="none" color="#FFFFFF" stroke="black" stroke-width="1.00" stroke-linecap="butt" stroke-linejoin="miter">
</g>
<g fill="none" color="black" stroke="currentColor" stroke-width="1.00" stroke-linecap="butt" stroke-linejoin="miter">
	<path stroke='black'  d='M62.2,396.9 L71.2,396.9 M615.0,396.9 L606.0,396.9  '/>	<g transform="translate(53.9,400.8)" stroke="none" fill="black" font-family="Arial" font-size="12.00"  text-anchor="end">
		<text><tspan font-family="Arial" > 2800</tspan></text>
	</g>
</g>
<g fill="none" color="black" stroke="currentColor" stroke-width="1.00" stroke-linecap="butt" stroke-linejoin="miter">
	<path stroke='black'  d='M62.2,350.5 L71.2,350.5 M615.0,350.5 L606.0,350.5  '/>	<g transform="translate(53.9,354.4)" stroke="none" fill="black" font-family="Arial" font-size="12.00"  text-anchor="end">
		<text><tspan font-family="Arial" > 2820</tspan></text>
	</g>
</g>
<g fill="none" color="black" stroke="currentColor" stroke-width="1.00" stroke-linecap="butt" stroke-linejoin="miter">
	<path stroke='black'  d='M62.2,304.1 L71.2,304.1 M615.0,304.1 L606.0,304.1  '/>	<g transform="translate(53.9,308.0)" stroke="none" fill="black" font-family="Arial" font-size="12.00"  text-anchor="end">
		<text><tspan font-family="Arial" > 2840</tspan></text>
	</g>
</g>
<g fill="none" color="black" stroke="currentColor" stroke-width="1.00" stroke-linecap="butt" stroke-linejoin="miter">
	<path stroke='black'  d='M62.2,257.7 L71.2,257.7 M615.0,257.7 L606.0,257.7  '/>	<g transform="translate(53.9,261.6)" stroke="none" fill="black" font-family="Arial" font-size="12.00"  text-anchor="end">
		<text><tspan font-family="Arial" > 2860</tspan></text>
	</g>
</g>
<g fill="none" color="black" stroke="currentColor" stroke-width="1.00" stroke-linecap="butt" stroke-linejoin="miter">
	<path stroke='black'  d='M62.2,211.3 L71.2,211.3 M615.0,211.3 L606.0,211.3  '/>	<g transform="translate(53.9,215.2)" stroke="none" fill="black" font-family="Arial" font-size="12.00"  text-anchor="end">
		<text><tspan font-family="Arial" > 2880</tspan></text>
	</g>
</g>
<g fill="none" color="black" stroke="currentColor" stroke-width="1.00" stroke-linecap="butt" stroke-linejoin="miter">
	<path stroke='black'  d='M62.2,164.9 L71.2,164.9 M615.0,164.9 L606.0,164.9  '/>	<g transform="translate(53.9,168.8)" stroke="none" fill="black" font-family="Arial" font-size="12.00"  text-anchor="end">
		<text><tspan font-family="Arial" > 2900</tspan></text>
	</g>
</g>
<g fill="none" color="black" stroke="currentColor" stroke-width="1.00" stroke-linecap="butt" stroke-linejoin="miter">
	<path stroke='black'  d='M62.2,118.6 L71.2,118.6 M615.0,118.6 L606.0,118.6  '/>	<g transform="translate(53.9,122.5)" stroke="none" fill="black" font-family="Arial" font-size="12.00"  text-anchor="end">
		<text><tspan font-family="Arial" > 2920</tspan></text>
	</g>
</g>
<g fill="none" color="black" stroke="currentColor" stroke-width="1.00" stroke-linecap="butt" stroke-linejoin="miter">
	<path stroke='black'  d='M62.2,72.2 L71.2,72.2 M615.0,72.2 L606.0,72.2  '/>	<g transform="translate(53.9,76.1)" stroke="none" fill="black" font-family="Arial" font-size="12.00"  text-anchor="end">
		<text><tspan font-family="Arial" > 2940</tspan></text>
	</g>
</g>
<g fill="none" color="black" stroke="currentColor" stroke-width="1.00" stroke-linecap="butt" stroke-linejoin="miter">
	<path stroke='black'  d='M62.2,25.8 L71.2,25.8 M615.0,25.8 L606.0,25.8  '/>	<g transform="translate(53.9,29.7)" stroke="none" fill="black" font-family="Arial" font-size="12.00"  text-anchor="end">
		<text><tspan font-family="Arial" > 2960</tspan></text>
	</g>
</g>
<g fill="none" color="black" stroke="currentColor" stroke-width="1.00" stroke-linecap="butt" stroke-linejoin="miter">
	<path stroke='black'  d='M62.2,400.0 L62.2,391.0 M62.2,18.1 L62.2,27.1  '/>	<g transform="translate(62.2,421.9)" stroke="none" fill="black" font-family="Arial" font-size="12.00"  text-anchor="middle">
		<text><tspan font-family="Arial" > 0</tspan></text>
	</g>
</g>
<g fill="none" color="black" stroke="currentColor" stroke-width="1.00" stroke-linecap="butt" stroke-linejoin="miter">
	<path stroke='black'  d='M118.0,400.0 L118.0,391.0 M118.0,18.1 L118.0,27.1  '/>	<g transform="translate(118.0,421.9)" stroke="none" fill="black" font-family="Arial" font-size="12.00"  text-anchor="middle">
		<text><tspan font-family="Arial" > 10</tspan></text>
	</g>
</g>
<g fill="none" color="black" stroke="currentColor" stroke-width="1.00" stroke-linecap="butt" stroke-linejoin="miter">
	<path stroke='black'  d='M173.9,400.0 L173.9,391.0 M173.9,18.1 L173.9,27.1  '/>	<g transform="translate(173.9,421.9)" stroke="none" fill="black" font-family="Arial" font-size="12.00"  text-anchor="middle">
		<text><tspan font-family="Arial" > 20</tspan></text>
	</g>
</g>
<g fill="none" color="black" stroke="currentColor" stroke-width="1.00" stroke-linecap="butt" stroke-linejoin="miter">
	<path stroke='black'  d='M229.7,400.0 L229.7,391.0 M229.7,18.1 L229.7,27.1  '/>	<g transform="translate(229.7,421.9)" stroke="none" fill="black" font-family="Arial" font-size="12.00"  text-anchor="middle">
		<text><tspan font-family="Arial" > 30</tspan></text>
	</g>
</g>
<g fill="none" color="black" stroke="currentColor" stroke-width="1.00" stroke-linecap="butt" stroke-linejoin="miter">
	<path stroke='black'  d='M285.6,400.0 L285.6,391.0 M285.6,18.1 L285.6,27.1  '/>	<g transform="translate(285.6,421.9)" stroke="none" fill="black" font-family="Arial" font-size="12.00"  text-anchor="middle">
		<text><tspan font-family="Arial" > 40</tspan></text>
	</g>
</g>
<g fill="none" color="black" stroke="currentColor" stroke-width="1.00" stroke-linecap="butt" stroke-linejoin="miter">
	<path stroke='black'  d='M341.4,400.0 L341.4,391.0 M341.4,18.1 L341.4,27.1  '/>	<g transform="translate(341.4,421.9)" stroke="none" fill="black" font-family="Arial" font-size="12.00"  text-anchor="middle">
		<text><tspan font-family="Arial" > 50</tspan></text>
	</g>
</g>
<g fill="none" color="black" stroke="currentColor" stroke-width="1.00" stroke-linecap="butt" stroke-linejoin="miter">
	<path stroke='black'  d='M397.2,400.0 L397.2,391.0 M397.2,18.1 L397.2,27.1  '/>	<g transform="translate(397.2,421.9)" stroke="none" fill="black" font-family="Arial" font-size="12.00"  text-anchor="middle">
		<text><tspan font-family="Arial" > 60</tspan></text>
	</g>
</g>
<g fill="none" color="black" stroke="currentColor" stroke-width="1.00" stroke-linecap="butt" stroke-linejoin="miter">
	<path stroke='black'  d='M453.1,400.0 L453.1,391.0 M453.1,18.1 L453.1,27.1  '/>	<g transform="translate(453.1,421.9)" stroke="none" fill="black" font-family="Arial" font-size="12.00"  text-anchor="middle">
		<text><tspan font-family="Arial" > 70</tspan></text>
	</g>
</g>
<g fill="none" color="black" stroke="currentColor" stroke-width="1.00" stroke-linecap="butt" stroke-linejoin="miter">
	<path stroke='black'  d='M508.9,400.0 L508.9,391.0 M508.9,18.1 L508.9,27.1  '/>	<g transform="translate(508.9,421.9)" stroke="none" fill="black" font-family="Arial" font-size="12.00"  text-anchor="middle">
		<text><tspan font-family="Arial" > 80</tspan></text>
	</g>
</g>
<g fill="none" color="black" stroke="currentColor" stroke-width="1.00" stroke-linecap="butt" stroke-linejoin="miter">
	<path stroke='black'  d='M564.7,400.0 L564.7,391.0 M564.7,18.1 L564.7,27.1  '/>	<g transform="translate(564.7,421.9)" stroke="none" fill="black" font-family="Arial" font-size="12.00"  text-anchor="middle">
		<text><tspan font-family="Arial" > 90</tspan></text>
	</g>
</g>
<g fill="none" color="black" stroke="currentColor" stroke-width="1.00" stroke-linecap="butt" stroke-linejoin="miter">
</g>
<g fill="none" color="black" stroke="currentColor" stroke-width="1.00" stroke-linecap="butt" stroke-linejoin="miter">
	<path stroke='black'  d='M62.2,18.1 L62.2,400.0 L615.0,400.0 L615.0,18.1 L62.2,18.1 Z  '/></g>
<g fill="none" color="black" stroke="currentColor" stroke-width="1.00" stroke-linecap="butt" stroke-linejoin="miter">
</g>
	<g id="gnuplot_plot_1" ><title>pages+cached+noexternal+nofonts+nosvg+noimg</title>
<g fill="none" color="black" stroke="currentColor" stroke-width="1.00" stroke-linecap="butt" stroke-linejoin="miter">
	<g transform="translate(487.6,439.9)" stroke="none" fill="black" font-family="Arial" font-size="12.00"  text-anchor="end">
		<text><tspan font-family="Arial" >pages+cached+noexternal+nofonts+nosvg+noimg</tspan></text>
	</g>
</g>
<g fill="none" color="black" stroke="currentColor" stroke-width="1.00" stroke-linecap="butt" stroke-linejoin="miter">
	<path stroke='rgb(148,   0, 211)'  d='M495.9,436.0 L538.1,436.0 M62.2,392.7 L67.8,387.8 L73.4,387.5 L79.0,384.7 L84.5,382.8 L90.1,382.8
		L95.7,382.4 L101.3,380.7 L106.9,377.3 L112.5,376.9 L118.0,376.9 L123.6,376.0 L129.2,375.3 L134.8,371.7
		L140.4,230.7 L146.0,230.6 L151.5,229.4 L157.1,225.7 L162.7,224.2 L168.3,222.1 L173.9,222.0 L179.5,221.7
		L185.0,221.6 L190.6,221.0 L196.2,219.6 L201.8,219.3 L207.4,218.7 L213.0,218.7 L218.5,218.3 L224.1,217.6
		L229.7,217.2 L235.3,216.8 L240.9,216.4 L246.5,216.3 L252.1,216.3 L257.6,215.9 L263.2,215.6 L268.8,215.2
		L274.4,215.2 L280.0,214.9 L285.6,214.5 L291.1,213.9 L296.7,213.6 L302.3,213.5 L307.9,213.3 L313.5,213.2
		L319.1,213.2 L324.6,213.1 L330.2,212.5 L335.8,212.5 L341.4,212.4 L347.0,212.2 L352.6,212.0 L358.1,211.6
		L363.7,211.5 L369.3,210.7 L374.9,210.4 L380.5,209.5 L386.1,209.5 L391.6,208.7 L397.2,208.7 L402.8,208.6
		L408.4,208.5 L414.0,208.4 L419.6,208.2 L425.1,207.7 L430.7,207.6 L436.3,207.6 L441.9,207.2 L447.5,206.5
		L453.1,205.5 L458.7,204.1 L464.2,203.5 L469.8,203.0 L475.4,202.9 L481.0,202.9 L486.6,202.6 L492.2,201.7
		L497.7,201.6 L503.3,201.4 L508.9,201.2 L514.5,201.0 L520.1,199.6 L525.7,199.4 L531.2,197.9 L536.8,194.4
		L542.4,191.8 L548.0,55.4 L553.6,44.1 L559.2,40.5 L564.7,31.8 L570.3,31.8 L575.9,30.7 L581.5,30.2
		L587.1,28.4 L592.7,28.2 L598.2,28.2 L603.8,28.0 L609.4,26.2 L615.0,25.4  '/></g>
	</g>
	<g id="gnuplot_plot_2" ><title>score p10=2500</title>
<g fill="none" color="black" stroke="currentColor" stroke-width="1.00" stroke-linecap="butt" stroke-linejoin="miter">
	<g transform="translate(487.6,457.9)" stroke="none" fill="black" font-family="Arial" font-size="12.00"  text-anchor="end">
		<text><tspan font-family="Arial" >score p10=2500</tspan></text>
	</g>
</g>
<g fill="none" color="black" stroke="currentColor" stroke-width="1.00" stroke-linecap="butt" stroke-linejoin="miter">
	<path stroke='rgb(  0, 158, 115)'  d='M495.9,454.0 L538.1,454.0  '/></g>
	</g>
	<g id="gnuplot_plot_3" ><title>score median=4000</title>
<g fill="none" color="black" stroke="currentColor" stroke-width="1.00" stroke-linecap="butt" stroke-linejoin="miter">
	<g transform="translate(487.6,475.9)" stroke="none" fill="black" font-family="Arial" font-size="12.00"  text-anchor="end">
		<text><tspan font-family="Arial" >score median=4000</tspan></text>
	</g>
</g>
<g fill="none" color="black" stroke="currentColor" stroke-width="1.00" stroke-linecap="butt" stroke-linejoin="miter">
	<path stroke='rgb( 86, 180, 233)'  d='M495.9,472.0 L538.1,472.0  '/></g>
	</g>
<g fill="none" color="#FFFFFF" stroke="rgb( 86, 180, 233)" stroke-width="2.00" stroke-linecap="butt" stroke-linejoin="miter">
</g>
<g fill="none" color="black" stroke="currentColor" stroke-width="2.00" stroke-linecap="butt" stroke-linejoin="miter">
</g>
<g fill="none" color="black" stroke="black" stroke-width="1.00" stroke-linecap="butt" stroke-linejoin="miter">
</g>
<g fill="none" color="black" stroke="currentColor" stroke-width="1.00" stroke-linecap="butt" stroke-linejoin="miter">
	<path stroke='black'  d='M62.2,18.1 L62.2,400.0 L615.0,400.0 L615.0,18.1 L62.2,18.1 Z  '/></g>
<g fill="none" color="black" stroke="currentColor" stroke-width="1.00" stroke-linecap="butt" stroke-linejoin="miter">
</g>
</g>
</svg>
